svg/system/certificate_line.svg

<?xml version="1.0" encoding="UTF-8"?>
<svg width="24px" height="24px" viewBox="0 0 24 24" version="1.1" xmlns="http://www.w3.org/2000/svg" xmlns:xlink="http://www.w3.org/1999/xlink">
    <title>certificate_line</title>
    <g id="页面-1" stroke="none" stroke-width="1" fill="none" fill-rule="evenodd">
        <g id="System" transform="translate(-334.000000, -192.000000)" fill-rule="nonzero">
            <g id="certificate_line" transform="translate(334.000000, 192.000000)">
                 <path d="M24,0 L24,24 L0,24 L0,0 L24,0 Z M12.5934901,23.257841 L12.5819402,23.2595131 L12.5108777,23.2950439 L12.4918791,23.2987469 L12.4918791,23.2987469 L12.4767152,23.2950439 L12.4056548,23.2595131 C12.3958229,23.2563662 12.3870493,23.2590235 12.3821421,23.2649074 L12.3780323,23.275831 L12.360941,23.7031097 L12.3658947,23.7234994 L12.3769048,23.7357139 L12.4804777,23.8096931 L12.4953491,23.8136134 L12.4953491,23.8136134 L12.5071152,23.8096931 L12.6106902,23.7357139 L12.6232938,23.7196733 L12.6232938,23.7196733 L12.6266527,23.7031097 L12.609561,23.275831 C12.6075724,23.2657013 12.6010112,23.2592993 12.5934901,23.257841 L12.5934901,23.257841 Z M12.8583906,23.1452862 L12.8445485,23.1473072 L12.6598443,23.2396597 L12.6498822,23.2499052 L12.6498822,23.2499052 L12.6471943,23.2611114 L12.6650943,23.6906389 L12.6699349,23.7034178 L12.6699349,23.7034178 L12.678386,23.7104931 L12.8793402,23.8032389 C12.8914285,23.8068999 12.9022333,23.8029875 12.9078286,23.7952264 L12.9118235,23.7811639 L12.8776777,23.1665331 C12.8752882,23.1545897 12.8674102,23.1470016 12.8583906,23.1452862 L12.8583906,23.1452862 Z M12.1430473,23.1473072 C12.1332178,23.1423925 12.1221763,23.1452606 12.1156365,23.1525954 L12.1099173,23.1665331 L12.0757714,23.7811639 C12.0751323,23.7926639 12.0828099,23.8018602 12.0926481,23.8045676 L12.108256,23.8032389 L12.3092106,23.7104931 L12.3186497,23.7024347 L12.3186497,23.7024347 L12.3225043,23.6906389 L12.340401,23.2611114 L12.337245,23.2485176 L12.337245,23.2485176 L12.3277531,23.2396597 L12.1430473,23.1473072 Z" id="MingCute" fill-rule="nonzero"></path>
                <path d="M10.5857,2.10056 C11.3256895,1.36061789 12.5011493,1.32167357 13.2868927,1.98372704 L13.4141,2.10056 L15.3136,4.00005 L17.9999,4.00005 C19.0542909,4.00005 19.9180678,4.81592733 19.9944144,5.85078759 L19.9999,6.00005 L19.9999,8.68632 L21.8994,10.5858 C22.6393895,11.3257895 22.6783363,12.5012493 22.0162404,13.2870778 L21.8994,13.4143 L19.9999,15.3138 L19.9999,18.0001 C19.9999,19.0543955 19.18405,19.9182591 18.1491661,19.9946139 L17.9999,20.0001 L15.3136,20.0001 L13.4141,21.8995 C12.6742053,22.6394895 11.4987504,22.6784363 10.7129222,22.0163404 L10.5857,21.8995 L8.68622,20.0001 L5.99991,20.0001 C4.94554773,20.0001 4.08174483,19.1841589 4.00539573,18.1493537 L3.99991,18.0001 L3.99991,15.3137 L2.10043,13.4143 C1.36049737,12.6743105 1.32155355,11.4988507 1.98360703,10.7130222 L2.10044,10.5858 L3.99991,8.68636 L3.99991,6.00005 C3.99991,4.94568773 4.81578733,4.08188483 5.85064759,4.00553573 L5.99991,4.00005 L8.68622,4.00005 L10.5857,2.10056 Z M11.9999,3.51477 L10.1004,5.41426 C9.76703111,5.74766444 9.32804642,5.9511963 8.86207199,5.99230949 L8.68622,6.00005 L5.99991,6.00005 L5.99991,8.68636 C5.99991,9.15786222 5.83342309,9.61218716 5.53299532,9.97077196 L5.41412,10.1006 L3.51465,12.0001 L5.41412,13.8995 C5.74752444,14.2329222 5.9510563,14.6719049 5.99216949,15.1378572 L5.99991,15.3137 L5.99991,18.0001 L8.68622,18.0001 C9.15772222,18.0001 9.61204716,18.166579 9.97058982,18.4669488 L10.1004,18.5858 L11.9999,20.4853 L13.8994,18.5858 C14.2328222,18.2524667 14.6718049,18.0489506 15.1377572,18.0078401 L15.3136,18.0001 L17.9999,18.0001 L17.9999,15.3138 C17.9999,14.8422444 18.166379,14.3879136 18.4668191,14.0293984 L18.5857,13.8996 L20.4852,12.0001 L18.5857,10.1005 C18.2522778,9.76714 18.0487519,9.3281563 18.0076402,8.86217495 L17.9999,8.68632 L17.9999,6.00005 L15.3136,6.00005 C14.8421333,6.00005 14.3878123,5.83356309 14.029228,5.53313532 L13.8994,5.41426 L11.9999,3.51477 Z M15.0793,8.98261 C15.4698,8.59209 16.103,8.59209 16.4935,8.98261 C16.8540538,9.34309923 16.8817888,9.91032645 16.5767047,10.3025979 L16.4935,10.3968 L11.6126,15.2778 C11.2136857,15.6766214 10.5846383,15.7051087 10.1529279,15.3632617 L10.057,15.2778 L7.6528,12.8736 C7.26228,12.4831 7.26228,11.8499 7.6528,11.4594 C8.01328,11.0989385 8.58051503,11.0712107 8.9728035,11.3762166 L9.06701,11.4594 L10.8348,13.2271 L15.0793,8.98261 Z" id="形状" fill="#09244B"></path>
            </g>
        </g>
    </g>
</svg>

<svg xmlns="http://www.w3.org/2000/svg" width="24" height="24"><g fill="none" fill-rule="nonzero"><path d="M24 0v24H0V0h24ZM12.593 23.258l-.011.002-.071.035-.02.004-.014-.004-.071-.035c-.01-.004-.019-.001-.024.005l-.004.01-.017.428.005.02.01.013.104.074.015.004.012-.004.104-.074.012-.016.004-.017-.017-.427c-.002-.01-.009-.017-.017-.018Zm.265-.113-.013.002-.185.093-.01.01-.003.011.018.43.005.012.008.007.201.093c.012.004.023 0 .029-.008l.004-.014-.034-.614c-.003-.012-.01-.02-.02-.022Zm-.715.002a.023.023 0 0 0-.027.006l-.006.014-.034.614c0 .012.007.02.017.024l.015-.002.201-.093.01-.008.004-.011.017-.43-.003-.012-.01-.01-.184-.092Z"/><path fill="#09244B" d="M10.586 2.1a2 2 0 0 1 2.7-.116l.128.117L15.314 4H18a2 2 0 0 1 1.994 1.85L20 6v2.686l1.9 1.9a2 2 0 0 1 .116 2.701l-.117.127-1.9 1.9V18a2 2 0 0 1-1.85 1.995L18 20h-2.685l-1.9 1.9a2 2 0 0 1-2.701.116l-.127-.116-1.9-1.9H6a2 2 0 0 1-1.995-1.85L4 18v-2.686l-1.9-1.9a2 2 0 0 1-.116-2.701l.116-.127 1.9-1.9V6a2 2 0 0 1 1.85-1.994L6 4h2.686l1.9-1.9ZM12 3.516l-1.9 1.9a2 2 0 0 1-1.238.577L8.686 6H6v2.686a2 2 0 0 1-.467 1.285l-.119.13-1.9 1.9 1.9 1.899a2 2 0 0 1 .578 1.238l.008.176V18h2.686a2 2 0 0 1 1.285.467l.13.119 1.899 1.9 1.9-1.9a2 2 0 0 1 1.238-.578l.176-.008H18v-2.686a2 2 0 0 1 .467-1.285l.119-.13 1.9-1.899-1.9-1.9a2 2 0 0 1-.578-1.238L18 8.686V6h-2.686a2 2 0 0 1-1.285-.467l-.13-.119-1.9-1.9Zm3.08 5.468a1 1 0 0 1 1.497 1.32l-.084.094-4.88 4.88a1.1 1.1 0 0 1-1.46.086l-.096-.085-2.404-2.404a1 1 0 0 1 1.32-1.498l.094.083 1.768 1.768 4.244-4.244Z"/></g></svg>
